X:60
T:Sírhat az a leány
M:4/4
L:1/4
K:D
A,/A,/F/F/ E<D | B,/B,/G/G/ F<E | A, F C E | D2 D z |
A,/A,/F/F/ E<D | B,/B,/G/G/ F<E | A, F C E | D2 D z |
G/F/G/A/ B<A | E/^D/E/F/ A<G | F<D F A | G/G/F/F/ E z |
A,/A,/F/F/ E<D | B,/B,/G/G/ F<E | A, F C E | D2 D z |

